X: 20992
Q: "Allegretto."
M: 3/4
L: 1/8
K: D
(BA)(AE)(GB) | AffAAf | GeeGGe | FddFFG |\
f3 AFD | A3 Aef | g3 AEF | G3 agf |\
f3 faf | e3 ege | dcdfec | d4 |]
z6 | z2zAde | f3 AFD | A3 Aef |\
g3 AEF | G3 agf | f3 faf | e3 ege |\
dcdfec | d3 |]


